X:4786
T:Old Favourite, The
O:england
R:double jig
M:6/8
L:1/8
K:G
A|:B3 {c}BAB|dBA G2B|ded d2B|ded B2A|
B3 {c}BAB|dBA G2B|ded cBA|1 G3 G2A:|2 G3 GBd||
g3 f3|efe edB|ded d2B|ded B2d|
g3 f3|efe edB|dge dBA|G3 GBd|
g3 f3|efe edB|ded d2B|ded B2d|
g3 f3|efe edB|dge dge|dge D2|


